X:1
T:Jesus, in Sickness and in Pain
T:Jesus, in Sickness and in Pain
T:Anonymous, 1845
T:Public Domain Courtesy of the Cyber Hymnal™
C:Anonymous, 1845
Z:Public Domain
Z:Courtesy of the Cyber Hymnal™
%%score ( 1 2 ) ( 3 4 )
L:1/8
Q:1/4=113
M:3/4
K:G
V:1 treble 
V:2 treble 
V:3 bass 
V:4 bass 
V:1
 E2 E2 [^DF]2 | [EG][CF] [B,E]2 [B,^D]2 | [B,E]4 [^DF]2 | [EG]3 [EG] [FA][EG] | [^DF]6 | %5
 [^DF]2 [DF]2 [EG]2 | [FA]4 [EG]2 | [EG][^DF] [DF]2 D2 | E>F z E [GB][FA] | [EG]4 [^DF]2 | E6 |] %11
V:2
 E2 E2 x2 | x6 | x6 | x6 | x6 | x6 | x6 | x6 | x2 G2 x2 | x6 | E6 |] %11
V:3
 [E,G,]2 [E,G,]2 [B,,B,]2 | [E,B,][A,,A,] [B,,G,]2 [B,,F,]2 | [E,G,]4 [B,,B,]2 | %3
 [E,B,]3 [E,B,] [^D,B,][E,B,] | [B,,B,]6 | [B,,B,]2 [B,,B,]2 [B,,B,]2 | [B,,B,]4 [B,,B,]2 | %7
 [B,,B,][B,,B,] [B,,B,]2 [B,,F,]2 | G,>A, B,2 [G,,B,][A,,C] | [B,,B,]4 [B,,B,]2 | [E,B,]6 |] %11
V:4
 x6 | x6 | x6 | x6 | x6 | x6 | x6 | x6 | E,4 x2 | x6 | x6 |] %11

